X:1
T:Meadow in Bloom, The
M:C
L:1/8
R:Reel
S:James Goodman (1828?1896) music manuscript collection,
S:vol. 3, p. 106. Mid-19th century, County Cork
Z:AK/Fiddler’s Companion
K:Dmix
ADDE FEFG|ADDB cABG|ADDE FEFG|AdcA G2 FG:|
Addc AGFG|Adde fdec|Addc AGFG|AdcA G2 FG|
Addc AGFG|Adde fefg|afge fdec|AdcA G2 FG!D.C.!||

